X:1
T:Conditor, LMD
T:Conditor, LMD
T:Proper Sarum Melody
T:Public Domain Courtesy of the Cyber Hymnal™
C:Proper Sarum Melody
Z:Public Domain
Z:Courtesy of the Cyber Hymnal™
%%score ( 1 2 ) ( 3 4 )
L:1/8
Q:1/4=110
M:4/4
K:F
V:1 treble 
V:2 treble 
V:3 bass 
V:4 bass 
V:1
 [EA]2 [DF]2 [DA]2 [Ec]2 | [Fd]2 (d2 B2) [Ec]2 x2 | [Fc]2 [Fd]2 [DB]2 [Ec]2 | %3
 [FB]2 [FA]2 [EG]2 [FA]2- | [FA]2 [Fc]2 [FB]2 [CG]2 | [FA]2 [FB]2 [FA]2 [EG]2 | %6
 [DF]2 F2 [EA]2 [DB]2 | [Cc]2 [FB]2 [FA]2 [EG]2 | [EA]6 z2 |] %9
V:2
 x8 | x2 F4 x4 | x8 | x8 | x8 | x8 | x2 F2 x4 | x8 | x8 |] %9
V:3
 [A,,C]2 [D,A,]2 [D,F,]2 [C,G,]2 | [B,,B,]2 B,4 D,2 [C,G,]2 | [F,A,]2 [D,A,]2 [G,B,]2 [C,G,]2 | %3
 [D,D]2 C4- [F,C]2- | [F,C]2 [F,A,]2 [D,B,]2 [E,C]2 | [F,C]2 [B,,D]2 [F,C]2 [C,C]2 | %6
 [D,A,]2 [D,A,]2 [C,A,]2 [B,,F,]2 | [A,,F,]2 [B,,D]2 C4- | [A,,C]6 z2 |] %9
V:4
 x8 | x2 B,,2 x6 | x8 | x2 F,2 C,2 x2 | x8 | x8 | x8 | x4 F,2 C,2 | x8 |] %9

